X:8968
T:La Lurette
R:Branle
A:Normandie
O:France
Z:transcrit par Jean Marc Henry
M:2/4
L:1/8
Q:1/4=96
K:D
D| DA AA| B-A BB|dc/2-B/2 AA| F2-F","D|DA  AA| B-A BB|!
dc/2-B/2 AA| F2-F ","A|AB AA| F2 FF|FG AF|D4-|DD FB| !
AA D>E|FD FB| AA D>E|D2-Dz||


